X:1
T:The Foggy Dew
I:The Foggy Dew, Ed Frank Purslow, 1973
Q:1/4=120
M:4/4     
L:1/8     
K:D
z4 z2 A2 |D2 F2 A2 d2 |d2 B2 F2 EE |F3 D B,2 C2 |
w:Oh! once I was a ba-chel-or and I had a fam-ous 
D6 D2 |D2 F2 A2 d2 |d2 A2 F2 E2 |F3 D B,2 C2 |
w:trade, Ans all that I del-light-ed in was court-ing of a 
D6 A2 |A3/2B/ A4 F2 |G2 A2 B2 F2 |G/ A3 B2 e2 z/ |
w:maid; I court-ed her one win-ter's morn; one sum-mer's day or 
d6 dd |B2 A2 A2 F2 |B2 AG FE E2 |F3 D B,2 C2 |
w:two, But I oft-times wish'd her in-to my arms_ out of the fog-gy 
D6 z2 |]
w:dew. 
     